X: 75
T: No_166_Hair_Dance_Song_(d).krn
N: Derived from No_166_Hair_Dance_Song_(d).krn
%%abc-version 2.0
%%abcx-abcm2ps-target-version 5.9.1 (29 Sep 2008)
%%abc-creator hum2abc beta
%%abcx-conversion-date 2019/03/15 08:38:45
%%humdrum-veritas 4051597389
%%humdrum-veritas-data 470240423
%%linebreak <none>
%%barnumbers 0
L: 1/8
M: 3/4
K: F clef=bass
[K:clef=bass][M:3/4]z3D CA, ]|:  
C3D (CA,) | 
A,3C CA, | 
G,3F, (D,C,) | 
C,3D, C,F, ||  
[M:2/4]C,3D, | 
C,C, C,/ z/ F, ||  
[M:3/4]D,D,D,2(F,D,) | 
C,D, C,/ z/ D, C,C, ||  
[M:2/4]C,3D, ||  
[M:3/4]C,C, C,/ z/ C CA, [I:setbarnb 12]:|]  
[M:2/4]C,C, C, z |]  



